X:1
T:Title
%%score { ( 1 3 ) | ( 2 4 ) }
L:1/8
Q:1/4=100
M:4/4
K:F
V:1 treble nm="Grand Piano"
V:3 treble 
V:2 bass 
V:4 bass 
V:1
 C>C A>G F>E F>G | A2 [GB]2 [Ac]4 | [GB]>[GB] [GB]>[EG] A>A A>F | G2 [=B,FG]2 [EG]2- [_B,EG]2 | %4
w: C.~Austin~Miles * * * * * * *||||
 C>C A>G F>E F>G | A2 [GB]2 [Ac]4 | c>c G>c d>d G>d | e2 d2 z2 B,2 | c>c c2 [Fd]>[Fd] [Fd]2 | %9
w: |||||
 c>c c>A [EB]4 | [EG]>[FA] [GB]>[Ac] [Be]2 [Bd]2 | [Ac]>[Bd] [Ac]>[GB] A4 | %12
w: |||
 c>c c2 [Fd]>[Fd] [Fd]2 | c>A G>F [Dd]4 | [Fd]>[Fd] [Fe]>[Fd] [Fc]>[A,FA] [_A,=B,F]>[A,B,G] | %15
w: |||
 [CFA]2 [B,EG]2 [A,F]4 |] %16
w: |
V:2
 [F,A,]>[F,A,] [F,CF]>[F,B,C] [F,A,C]>[F,G,C] [F,A,C]>[F,B,E] | [F,CF]2 [F,C]2 [F,C]4 | %2
 [C,C]>[C,C] [C,C]>[C,C] [F,CF]>[F,CF] [F,CF]>[A,C] | [G,CE]2 G,,2 C,4 | %4
 [F,A,]>[F,A,] [F,CF]>[F,B,C] [F,A,C]>[F,G,C] [F,A,C]>[F,B,E] | [F,CF]2 [F,C]2[K:treble] [F,F]4 | %6
 [G,EG]>[G,EG] [G,CE]>[G,CE] [G,=B,F]>[G,B,F] [G,B,F]>[G,B,F] | [G,CG]2 [G,=B,F]2[K:bass] C2 z2 | %8
 [F,A,F]>[F,A,F] [F,A,F]2 [B,,A,]>[B,,A,] [B,,A,]2 | [F,A,F]>[F,A,F] [F,A,F]>[F,CF] [C,C]4 | %10
 [C,C]>[C,C] [C,C]>[C,C] [C,C]2 [C,C]2 | [C,C]>[D,C] [E,C]>[C,C] [F,CF]4 | %12
 [F,A,F]>[F,A,F] [F,A,F]2 [B,,B,]>[B,,B,] [B,,B,]2 | [F,A,F]>[F,CF] [F,B,E]>[F,A,_E] [B,,F,]4 | %14
 [=B,,_A,]>[B,,A,] [B,,A,]>[B,,A,] [C,=A,]>C, ^C,>C, | C,2 C,2 F,4 |] %16
V:3
 x8 | x8 | x8 | z4 C2 z2 | x8 | x8 | x8 | z4 [Ec]4 | x8 | x8 | x8 | x8 | x8 | x8 | x8 | x8 |] %16
V:4
 x8 | x8 | x8 | x8 | x8 | x4[K:treble] x4 | x8 | z4[K:bass] C,4 | x8 | x8 | x8 | x8 | x8 | x8 | %14
 x8 | x8 |] %16

